!!!SOCIAL_FUNCTION:	love songs
!!!PDT:	1909
!!!OTL: No_138_Do_Not_Weep.krn
!!!REG: Great_Lakes
!!!LANG: Non-Tone
!!!LING_GROUP: Algonquin
**kern
*staff1
=1-
*clefF4
*k[b-e-a-]
*M3/4
4c\
4c\
4c\
=2
4G\
4G\
4d\
=3
2.c\
=4
4c\
4G\
4G\
=5
4F\
4F\
4c\
=6
2.G\
=7
4G\
4F\
4E-\
=8
4C/
4C/
4G\
=9
2.F\
=10
4c\
4G\
4F\
=11
8E-\L
8E-\J
8.C/L
16C/Jk
4F\
=12
2.C/
==
*-
